resources/icons/20px/rocket.svg

<?xml version="1.0" encoding="utf-8"?>
<svg width="20" height="20" viewBox="0 0 20 20" fill="none" xmlns="http://www.w3.org/2000/svg">
<path fill-rule="evenodd" clip-rule="evenodd" d="M7 7.5C7 4.5 8.85714 1.25 10 0C11.1429 1.25 13 4.5 13 7.5C13 10.5 12.2857 13.75 12 15H8C7.71429 13.75 7 10.5 7 7.5ZM13.8401 9.99913C13.701 11.6203 13.37 13.4046 13 15.0105L17 16L16 12L13.8401 9.99913ZM9.00834 16C9 16.1389 9 16.2837 9 16.4286C9 17.1429 9 17.5 10 20C11 17.5 11 17.1429 11 16.4286C11 16.2837 11 16.1389 10.9917 16H9.00834ZM7 15.0113C6.62995 13.4055 6.299 11.6212 6.15991 10L4 12.0009L3 16L7 15.0113ZM10 4.99999C9.44772 4.99999 9 5.44771 9 5.99999C9 6.55228 9.44772 6.99999 10 6.99999C10.5523 6.99999 11 6.55228 11 5.99999C11 5.44771 10.5523 4.99999 10 4.99999Z" fill="black"/>
</svg>

<svg xmlns="http://www.w3.org/2000/svg" viewBox="0 0 20 20">
  <path d="M7 7.5c0-3 1.857-6.25 3-7.5 1.143 1.25 3 4.5 3 7.5s-.714 6.25-1 7.5H8c-.286-1.25-1-4.5-1-7.5m6.84 2.5c-.139 1.62-.47 3.405-.84 5.01l4 .99-1-4zm-4.832 6q-.01.21-.008.429C9 17.143 9 17.5 10 20c1-2.5 1-2.857 1-3.571q.002-.219-.008-.429zM7 15.011c-.37-1.605-.701-3.39-.84-5.011L4 12l-1 4zM10 5a1 1 0 1 0 0 2 1 1 0 0 0 0-2"/>
</svg>
